X:1
T:Title
%%score 1 2
L:1/8
M:3/4
K:Bb
V:1 treble nm="Grand Piano, Soprano"
V:2 bass nm="Choir Pad, Lucknow, 10.10.10.10"
V:1
 [B,D]2 [CE]2 [_D=E]2 | [DF]4 [Fd]2 | [Ec]2 [DB]2 [B,D]2 | [EG]4 [DF]2 | [DF]2 [CE]2 [CE]2 | %5
w: By~D.~T.~Brown,~1899 * *|||||
 [EA]4 [EG][EG] | [EG]2 [DF]2 [CE]2 | [B,D]6 | [B,D]2 [CE]2 [_D=E]2 | [DF]4 [Fd]2 | %10
w: |||||
 [Ec]2 [DB]2 [B,D]2 | [EG]4 [DF]2 | [EF]2 [EG]2 [EA]2 | [DB]4 [Ec][Ge] | [Fd]2 [Fd]2 [Ec]2 | %15
w: |||||
 [DB]6- | [DB]2 z2 z2 |] %17
w: ||
V:2
 [B,,F,]2 [B,,F,]2 [B,,B,]2 | [B,,B,]4 [B,,B,]2 | [B,,B,]2 [B,,F,]2 [B,,F,]2 | [B,,B,]4 [B,,B,]2 | %4
 [F,B,]2 [F,A,]2 [F,A,]2 | [F,C]4 [F,C][F,C] | [F,A,]2 [F,A,]2 F,2 | [B,,F,]6 | %8
 [B,,F,]2 [B,,F,]2 [B,,B,]2 | [B,,B,]4 [B,,B,]2 | [B,,B,]2 [B,,F,]2 [B,,F,]2 | [B,,B,]4 [B,,B,]2 | %12
 [F,A,]2 [F,B,]2 [F,C]2 | [G,B,]4 [E,G,][E,B,] | [F,B,]2 [F,B,]2 [F,A,]2 | [B,,B,]6- | %16
 [B,,B,]2 z2 z2 |] %17

